src/pages/headings/UnsereKurse.svg

<svg viewBox="0 0 391 53" fill="none" xmlns="http://www.w3.org/2000/svg">
    <path d="M8.95999 52.1599C3.77599 52.1599 -9.05991e-06 48.2559 -9.05991e-06 43.3279C-9.05991e-06 30.6559 18.56 13.6319 18.56 5.11995C18.56 3.26395 17.536 1.34395 14.912 1.34395C12.544 1.34395 9.40799 2.94395 7.03999 5.11995L6.52799 4.54395C9.59999 1.91995 13.184 -5.34058e-05 16.384 -5.34058e-05C20.736 -5.34058e-05 22.08 3.26395 22.08 5.69595C22.08 13.6319 4.03199 31.6799 4.03199 42.6239C4.03199 47.2319 6.78399 49.7279 10.816 49.7279C18.368 49.7279 28.416 39.3599 38.272 26.6239C44.288 15.9359 51.008 4.86395 53.568 0.831947C53.76 0.575947 54.016 0.447948 54.336 0.447948H56.704C57.216 0.447948 57.408 0.767948 57.152 1.21595C52.288 8.95995 40.832 28.0959 36.48 37.1839C34.112 42.1759 33.024 45.1839 33.024 46.6559C33.024 48.2559 33.856 48.9599 34.944 48.9599C36.352 48.9599 38.4 48.1919 41.536 45.4399L41.984 46.0799C38.016 49.4719 34.048 52.0959 32.128 52.0959C29.632 52.0959 28.736 50.1119 28.736 48.3839C28.736 46.0159 29.568 43.0079 31.872 38.4639L35.776 31.1679C23.36 46.6559 14.848 52.1599 8.95999 52.1599ZM46.1325 51.6479C45.6845 51.6479 45.4925 51.3279 45.7485 50.8799C49.5245 44.2239 58.6125 28.0319 58.6125 23.9999C58.6125 22.9119 57.9725 22.2079 56.8845 22.2079C55.4765 22.2079 53.5565 23.1039 50.4205 25.8559L49.9725 25.2159C53.9405 21.8239 57.9085 19.1999 59.9565 19.1999C62.1965 19.1999 62.9645 21.0559 62.9645 22.5279C62.9645 24.8959 59.1245 32.8319 55.5405 39.8719C58.6765 35.7759 62.1965 31.8719 65.7165 28.5439C71.4765 22.9759 76.9805 19.1999 79.9885 19.1999C82.3565 19.1999 82.9965 21.0559 82.9965 22.3999C82.9965 27.9679 71.2845 42.4319 71.2845 47.6159C71.2845 48.7039 71.9885 49.2799 73.0765 49.2799C74.4845 49.2799 76.4045 48.1919 79.5405 45.4399L79.9885 46.0799C76.0205 49.5999 72.0525 52.0959 70.1325 52.0959C67.7645 52.0959 66.9965 50.2399 66.9965 48.8319C66.9965 42.8799 78.8365 28.4799 78.8365 23.7439C78.8365 22.7839 78.3245 21.9519 76.9805 21.9519C74.4205 21.9519 70.7085 24.8319 66.1645 29.1199C61.6845 33.3439 56.7565 39.0399 52.9805 44.6079C51.2525 47.8079 49.8445 50.3039 49.2685 51.1999C49.0765 51.5199 48.8205 51.6479 48.5005 51.6479H46.1325ZM87.2655 52.0959C83.9375 52.0959 80.7375 50.8799 80.9295 47.5519C80.9935 46.2079 81.8255 44.4799 84.9615 42.1119L85.3455 42.4319C84.8975 43.2639 84.6415 44.2239 84.6415 45.1199C84.6415 47.8079 86.6255 50.4319 90.9775 50.4319C94.9455 50.4319 98.5295 47.8719 98.5295 43.7759C98.5295 38.6559 92.3215 32.8319 92.7055 27.8399C93.1535 22.3999 100.193 19.1999 106.081 19.1999C108.769 19.1999 111.969 19.9679 111.969 21.0559C111.969 22.3999 110.049 23.7439 108.641 23.7439C106.721 23.7439 104.801 22.9119 100.257 20.9279C97.1215 22.0159 95.7775 23.4879 95.5855 25.2159C95.0735 30.5919 101.729 35.7759 101.473 41.7279C101.153 47.7439 94.6255 52.0959 87.2655 52.0959ZM114.695 52.0959C109.959 52.0959 107.399 49.0879 107.399 44.7359C107.399 33.2159 121.735 19.0719 131.527 19.0719C134.791 19.0719 136.583 20.3519 136.583 22.5279C136.583 26.3679 131.527 31.4879 111.751 43.8399C111.943 46.7839 113.479 49.3439 117.639 49.3439C119.623 49.3439 123.399 48.6399 128.583 44.0319L129.031 44.5439C123.079 50.2399 117.703 52.0959 114.695 52.0959ZM111.751 43.0719C125.063 34.7519 132.167 29.5679 132.167 24.3199C132.167 22.0159 130.311 21.2479 128.519 21.2479C118.855 21.2479 111.815 34.6239 111.751 43.0719ZM134.57 51.6479C134.122 51.6479 133.93 51.3279 134.186 50.8799C137.962 44.2239 147.05 28.0319 147.05 23.9999C147.05 22.9119 146.41 22.2079 145.322 22.2079C143.914 22.2079 141.994 23.1039 138.858 25.8559L138.41 25.2159C142.378 21.8239 146.346 19.1999 148.394 19.1999C150.634 19.1999 151.402 21.0559 151.402 22.5279C151.402 23.9359 150.058 27.3919 148.138 31.3599C152.49 24.7679 158.058 19.1999 166.314 19.1999C167.978 19.1999 169.322 19.4559 169.322 20.2879C169.322 21.8239 167.146 23.9999 164.97 23.9999C162.986 23.9999 160.618 23.7439 157.29 22.7199C153.13 25.0239 148.458 31.6159 144.682 38.3999C141.674 44.2879 138.602 49.7919 137.706 51.1999C137.514 51.5199 137.258 51.6479 136.938 51.6479H134.57ZM168.445 52.0959C163.709 52.0959 161.149 49.0879 161.149 44.7359C161.149 33.2159 175.485 19.0719 185.277 19.0719C188.541 19.0719 190.333 20.3519 190.333 22.5279C190.333 26.3679 185.277 31.4879 165.501 43.8399C165.693 46.7839 167.229 49.3439 171.389 49.3439C173.373 49.3439 177.149 48.6399 182.333 44.0319L182.781 44.5439C176.829 50.2399 171.453 52.0959 168.445 52.0959ZM165.501 43.0719C178.813 34.7519 185.917 29.5679 185.917 24.3199C185.917 22.0159 184.061 21.2479 182.269 21.2479C172.605 21.2479 165.565 34.6239 165.501 43.0719ZM192.8 50.6239V9.15195C192.8 8.57595 193.312 8.12795 193.888 8.12795H200.928C201.632 8.12795 202.016 8.57595 202.016 9.15195V25.6639L217.696 8.95995C218.272 8.25595 218.72 8.12795 219.872 8.12795H227.168C228.32 8.12795 228.512 8.76795 227.68 9.66395L210.208 28.2239L229.28 50.1119C230.112 51.1359 229.728 51.6479 228.768 51.6479H220.384C218.976 51.6479 218.656 51.3919 217.952 50.4319L202.016 31.3599V50.6239C202.016 51.1999 201.632 51.6479 200.928 51.6479H193.888C193.312 51.6479 192.8 51.1999 192.8 50.6239ZM232.968 34.6239V9.15195C232.968 8.57595 233.416 8.12795 234.056 8.12795H241.096C241.8 8.12795 242.184 8.57595 242.184 9.15195V34.7519C242.184 41.0239 245.832 44.3519 251.272 44.3519C256.712 44.3519 260.296 41.0239 260.296 34.7519V9.15195C260.296 8.57595 260.744 8.12795 261.384 8.12795H268.424C269.128 8.12795 269.512 8.57595 269.512 9.15195V34.6239C269.512 45.5039 262.344 52.2879 251.272 52.2879C240.2 52.2879 232.968 45.5039 232.968 34.6239ZM278.05 50.6239V9.15195C278.05 8.57595 278.562 8.12795 279.138 8.12795H294.37C304.418 8.12795 311.202 13.4399 311.202 22.0159C311.202 28.2239 307.426 32.3199 301.41 33.9839L313.57 49.8559C314.53 51.1359 313.57 51.6479 312.29 51.6479H304.93C303.778 51.6479 303.458 51.3279 302.69 50.2399L292.066 35.8399H287.266V50.6239C287.266 51.1999 286.882 51.6479 286.178 51.6479H279.138C278.562 51.6479 278.05 51.1999 278.05 50.6239ZM294.306 15.8079H287.266V28.1599H294.242C298.594 28.1599 301.474 25.8559 301.474 22.0159C301.474 17.9839 298.594 15.8079 294.306 15.8079ZM335.417 44.3519C339.385 44.3519 341.625 42.6239 341.625 40.1279C341.625 37.3119 339.833 36.0319 331.577 33.5999C321.337 30.6559 317.817 26.6239 317.817 20.2239C317.817 13.3759 322.809 7.48795 334.009 7.48795C339.577 7.48795 345.593 9.34395 349.817 11.7119C350.649 12.2239 350.649 12.7359 350.393 13.3119L347.897 18.7519C347.449 19.6479 347.065 19.9679 345.913 19.3919C342.777 17.5999 338.041 15.4239 333.625 15.4239C329.017 15.4239 327.481 17.2159 327.481 19.3279C327.481 22.0799 329.657 23.0399 337.657 25.4719C346.425 28.1599 351.289 31.4239 351.289 39.0399C351.289 47.2319 344.825 52.2879 335.225 52.2879C327.865 52.2879 322.553 50.6239 317.881 48.1279C316.921 47.6159 316.793 47.1039 317.241 46.2719L319.801 40.8319C320.185 40.0639 320.633 39.8719 321.401 40.3199C326.201 42.6879 330.233 44.3519 335.417 44.3519ZM358.112 50.6239V9.15195C358.112 8.57595 358.624 8.12795 359.2 8.12795H389.024C389.664 8.12795 390.048 8.51195 390.048 9.21595V14.7839C390.048 15.3599 389.664 15.8079 389.024 15.8079H367.328V24.9599H382.624C383.264 24.9599 383.648 25.3439 383.648 26.0479V31.5519C383.648 32.1919 383.264 32.6399 382.624 32.6399H367.328V43.9679H389.024C389.664 43.9679 390.048 44.3519 390.048 44.9919V50.5599C390.048 51.1999 389.664 51.6479 389.024 51.6479H359.2C358.624 51.6479 358.112 51.1999 358.112 50.6239Z" fill="black"/>
</svg>

<svg xmlns="http://www.w3.org/2000/svg" width="391" height="53" fill="none"><path fill="#000" d="M8.96 52.16A8.7 8.7 0 0 1 0 43.33c0-12.67 18.56-29.7 18.56-38.21 0-1.86-1.02-3.78-3.65-3.78-2.37 0-5.5 1.6-7.87 3.78l-.51-.58C9.6 1.92 13.18 0 16.38 0c4.36 0 5.7 3.26 5.7 5.7 0 7.93-18.05 25.98-18.05 36.92 0 4.61 2.75 7.1 6.79 7.1 7.55 0 17.6-10.36 27.45-23.1A684 684 0 0 1 53.57.83q.29-.38.77-.38h2.36c.52 0 .7.32.45.77C52.3 8.96 40.83 28.1 36.48 37.18c-2.37 5-3.46 8-3.46 9.48 0 1.6.84 2.3 1.92 2.3 1.41 0 3.46-.77 6.6-3.52l.44.64c-3.96 3.4-7.93 6.02-9.85 6.02-2.5 0-3.4-1.99-3.4-3.72 0-2.36.84-5.37 3.14-9.92l3.9-7.3c-12.41 15.5-20.92 21-26.81 21m37.17-.51c-.45 0-.64-.32-.38-.77C49.52 44.22 58.6 28.03 58.6 24c0-1.09-.64-1.8-1.73-1.8-1.4 0-3.32.9-6.46 3.66l-.45-.64c3.97-3.4 7.94-6.02 9.99-6.02 2.24 0 3 1.86 3 3.33 0 2.37-3.84 10.3-7.42 17.34 3.14-4.1 6.66-8 10.18-11.33 5.76-5.56 11.26-9.34 14.27-9.34 2.37 0 3 1.86 3 3.2 0 5.57-11.7 20.03-11.7 25.22 0 1.08.7 1.66 1.79 1.66 1.4 0 3.32-1.09 6.46-3.84l.45.64c-3.97 3.52-7.94 6.02-9.86 6.02-2.37 0-3.13-1.86-3.13-3.27 0-5.95 11.84-20.35 11.84-25.09 0-.96-.52-1.79-1.86-1.79-2.56 0-6.27 2.88-10.82 7.17a98 98 0 0 0-13.18 15.49c-1.73 3.2-3.14 5.7-3.71 6.59a.8.8 0 0 1-.77.45zm41.14.45c-3.33 0-6.53-1.22-6.34-4.55.06-1.34.9-3.07 4.03-5.44l.39.32a6 6 0 0 0-.7 2.69c0 2.69 1.98 5.31 6.33 5.31 3.97 0 7.55-2.56 7.55-6.65 0-5.12-6.2-10.95-5.82-15.94.44-5.44 7.48-8.64 13.37-8.64 2.69 0 5.89.77 5.89 1.86 0 1.34-1.92 2.68-3.33 2.68-1.92 0-3.84-.83-8.38-2.81-3.14 1.09-4.48 2.56-4.67 4.29-.52 5.37 6.14 10.56 5.88 16.5-.32 6.02-6.84 10.38-14.2 10.38m27.42 0c-4.73 0-7.3-3.01-7.3-7.36 0-11.52 14.35-25.67 24.14-25.67 3.26 0 5.05 1.28 5.05 3.46 0 3.84-5.05 8.96-24.83 21.31.2 2.94 1.73 5.5 5.89 5.5 1.98 0 5.76-.7 10.94-5.3l.45.5c-5.95 5.7-11.33 7.56-14.34 7.56m-2.94-9.03c13.31-8.32 20.42-13.5 20.42-18.75 0-2.3-1.86-3.07-3.65-3.07-9.67 0-16.7 13.37-16.77 21.82m22.82 8.58c-.45 0-.64-.32-.38-.77 3.77-6.66 12.86-22.85 12.86-26.88 0-1.09-.64-1.8-1.73-1.8-1.4 0-3.33.9-6.46 3.66l-.45-.64c3.97-3.4 7.94-6.02 9.98-6.02 2.24 0 3.01 1.86 3.01 3.33 0 1.4-1.34 4.86-3.26 8.83 4.35-6.6 9.92-12.16 18.17-12.16 1.67 0 3.01.26 3.01 1.09 0 1.53-2.17 3.71-4.35 3.71-1.98 0-4.35-.26-7.68-1.28-4.16 2.3-8.83 8.9-12.6 15.68-3.02 5.89-6.09 11.4-6.98 12.8a.8.8 0 0 1-.77.45zm33.88.45c-4.74 0-7.3-3.01-7.3-7.36 0-11.52 14.34-25.67 24.13-25.67 3.26 0 5.05 1.28 5.05 3.46 0 3.84-5.05 8.96-24.83 21.31.2 2.94 1.73 5.5 5.89 5.5 1.98 0 5.76-.7 10.94-5.3l.45.5c-5.95 5.7-11.33 7.56-14.34 7.56m-2.95-9.03c13.31-8.32 20.42-13.5 20.42-18.75 0-2.3-1.86-3.07-3.65-3.07-9.67 0-16.7 13.37-16.77 21.82m27.3 7.55V9.15c0-.57.51-1.02 1.09-1.02h7.04c.7 0 1.09.45 1.09 1.02v16.51l15.68-16.7c.57-.7 1.02-.83 2.17-.83h7.3c1.15 0 1.34.64.51 1.53l-17.47 18.56 19.07 21.9c.83 1.02.45 1.53-.51 1.53h-8.39c-1.4 0-1.72-.26-2.43-1.22l-15.93-19.07v19.26c0 .58-.39 1.03-1.1 1.03h-7.03c-.58 0-1.09-.45-1.09-1.03m40.17-16V9.15c0-.57.45-1.02 1.09-1.02h7.04c.7 0 1.08.45 1.08 1.02v25.6c0 6.27 3.65 9.6 9.1 9.6 5.43 0 9.02-3.33 9.02-9.6V9.15c0-.57.44-1.02 1.08-1.02h7.04c.7 0 1.1.45 1.1 1.02v25.47c0 10.88-7.18 17.67-18.25 17.67s-18.3-6.79-18.3-17.67m45.08 16V9.15c0-.57.51-1.02 1.09-1.02h15.23c10.05 0 16.83 5.31 16.83 13.89 0 6.2-3.77 10.3-9.79 11.96l12.16 15.88c.96 1.28 0 1.79-1.28 1.79h-7.36c-1.15 0-1.47-.32-2.24-1.41l-10.62-14.4h-4.8v14.78c0 .58-.39 1.03-1.1 1.03h-7.03c-.58 0-1.09-.45-1.09-1.03m16.26-34.81h-7.04v12.35h6.97c4.35 0 7.23-2.3 7.23-6.14 0-4.04-2.88-6.21-7.16-6.21m41.1 28.54c3.97 0 6.21-1.73 6.21-4.22 0-2.82-1.79-4.1-10.04-6.53-10.24-2.94-13.76-6.98-13.76-13.38 0-6.84 4.99-12.73 16.19-12.73 5.57 0 11.58 1.85 15.8 4.22.84.51.84 1.03.58 1.6l-2.5 5.44c-.44.9-.82 1.22-1.98.64-3.13-1.79-7.87-3.97-12.29-3.97-4.6 0-6.14 1.8-6.14 3.9 0 2.76 2.18 3.72 10.18 6.15 8.76 2.69 13.63 5.95 13.63 13.57 0 8.2-6.47 13.25-16.06 13.25-7.37 0-12.68-1.67-17.35-4.16-.96-.51-1.09-1.03-.64-1.86l2.56-5.44c.38-.77.83-.96 1.6-.51 4.8 2.37 8.83 4.03 14.02 4.03m22.7 6.27V9.15c0-.57.51-1.02 1.09-1.02h29.82c.64 0 1.03.38 1.03 1.09v5.56c0 .58-.39 1.03-1.03 1.03h-21.7v9.15h15.3c.64 0 1.03.38 1.03 1.09v5.5c0 .64-.39 1.09-1.03 1.09h-15.3v11.33h21.7c.64 0 1.03.38 1.03 1.02v5.57c0 .64-.39 1.09-1.03 1.09H359.2c-.58 0-1.09-.45-1.09-1.03"/></svg>
